.forestry/content/images/gauge.svg

<svg enable-background="new 0 0 342 342" fill="#fff" viewBox="0 0 342 342" xmlns="http://www.w3.org/2000/svg"><path d="m171 0c-94.3 0-171 76.7-171 171s76.7 171 171 171 171-76.7 171-171-76.7-171-171-171zm0 327.8c-71.6 0-132.1-48.3-150.8-114h101.4c11.9 17.9 30.1 28.5 49.4 28.5s37.5-10.6 49.4-28.5h101.4c-18.7 65.7-79.2 114-150.8 114zm45.4-128.3c-2.5 0-4.9 1.3-6.1 3.5-9.2 15.6-23.8 25-39.3 25s-30.1-9.3-39.3-25c-1.3-2.2-3.6-3.5-6.1-3.5h-108.7c-1.8-9.4-2.6-18.9-2.6-28.5-.1-86.4 70.3-156.8 156.7-156.8s156.8 70.4 156.8 156.8c0 9.6-.9 19.1-2.6 28.5zm0 0"/><path d="m223 101.8-42.4 42.4c-3.1-1.1-6.3-1.7-9.5-1.8-15.7 0-28.5 12.8-28.5 28.5s12.8 28.5 28.5 28.5c15.7.1 28.4-12.5 28.5-28.2 0-6.9-2.5-13.6-7-18.8l40.6-40.6c2.7-2.8 2.7-7.3-.2-10.1-2.9-2.5-7.3-2.5-10 .1zm-52 83.4c-7.9 0-14.3-6.4-14.3-14.2 0-7.9 6.4-14.3 14.3-14.3s14.2 6.4 14.2 14.3-6.3 14.2-14.2 14.2zm0 0"/><path d="m171 64.1c3.9 0 7.1-3.2 7.1-7.1v-28.5c0-3.9-3.2-7.1-7.1-7.1s-7.1 3.2-7.1 7.1v28.5c0 3.9 3.2 7.1 7.1 7.1zm0 0"/><path d="m313.5 163.9h-28.5c-3.9 0-7.1 3.2-7.1 7.1s3.2 7.1 7.1 7.1h28.5c3.9 0 7.1-3.2 7.1-7.1s-3.2-7.1-7.1-7.1zm0 0"/><path d="m57 163.9h-28.5c-3.9 0-7.1 3.2-7.1 7.1s3.2 7.1 7.1 7.1h28.5c3.9 0 7.1-3.2 7.1-7.1s-3.2-7.1-7.1-7.1zm0 0"/><path d="m119.5 67.6-12.1-21c-2-3.4-6.4-4.5-9.8-2.5s-4.5 6.3-2.6 9.7l12.1 21c1.9 3.4 6.3 4.6 9.7 2.7 3.5-2.1 4.7-6.4 2.7-9.9zm0 0"/><path d="m298.1 97.7c-1.9-3.4-6.3-4.6-9.7-2.7h-.1l-21 12.1c-3.4 2-4.6 6.3-2.6 9.7 1.3 2.2 3.6 3.6 6.2 3.6 1.2 0 2.5-.3 3.6-1l21-12.1c3.4-1.9 4.6-6.2 2.6-9.6zm0 0"/><path d="m74.8 107.2c-.1 0-.1 0 0 0l-21.1-12.2c-3.4-2-7.8-.8-9.7 2.5-2 3.4-.9 7.8 2.5 9.7h.1l21 12.1c3.4 2 7.8.9 9.8-2.5 1.9-3.3.8-7.6-2.6-9.6zm0 0"/><path d="m244.3 44c-3.4-1.9-7.7-.8-9.7 2.6l-12.1 21c-2 3.4-.8 7.8 2.6 9.7 3.4 2 7.8.8 9.7-2.6l12.1-21c2-3.4.8-7.8-2.6-9.7zm0 0"/></svg>

<?xml version="1.0" encoding="UTF-8"?> <!-- Generator: Adobe Illustrator 23.0.2, SVG Export Plug-In . SVG Version: 6.00 Build 0) --> <svg xmlns="http://www.w3.org/2000/svg" fill="#FFFFFF" xmlns:xlink="http://www.w3.org/1999/xlink" id="Layer_1" x="0px" y="0px" viewBox="0 0 342 342" style="enable-background:new 0 0 342 342;" xml:space="preserve"> <metadata><?xpacket begin="﻿" id="W5M0MpCehiHzreSzNTczkc9d"?> <?xpacket end="w"?></metadata> <g> <path d="M171,0C76.7,0,0,76.7,0,171s76.7,171,171,171s171-76.7,171-171S265.3,0,171,0L171,0z M171,327.8 c-71.6,0-132.1-48.3-150.8-114h101.4c11.9,17.9,30.1,28.5,49.4,28.5c19.3,0,37.5-10.6,49.4-28.5h101.4 C303.1,279.5,242.6,327.8,171,327.8L171,327.8z M216.4,199.5c-2.5,0-4.9,1.3-6.1,3.5c-9.2,15.6-23.8,25-39.3,25s-30.1-9.3-39.3-25 c-1.3-2.2-3.6-3.5-6.1-3.5H16.9c-1.8-9.4-2.6-18.9-2.6-28.5C14.2,84.6,84.6,14.2,171,14.2S327.8,84.6,327.8,171 c0,9.6-0.9,19.1-2.6,28.5H216.4z M216.4,199.5"></path> <path d="M223,101.8l-42.4,42.4c-3.1-1.1-6.3-1.7-9.5-1.8c-15.7,0-28.5,12.8-28.5,28.5c0,15.7,12.8,28.5,28.5,28.5 c15.7,0.1,28.4-12.5,28.5-28.2c0-6.9-2.5-13.6-7-18.8l40.6-40.6c2.7-2.8,2.7-7.3-0.2-10.1C230.1,99.2,225.7,99.2,223,101.8 L223,101.8z M171,185.2c-7.9,0-14.3-6.4-14.3-14.2c0-7.9,6.4-14.3,14.3-14.3s14.2,6.4,14.2,14.3C185.2,178.9,178.9,185.2,171,185.2 L171,185.2z M171,185.2"></path> <path d="M171,64.1c3.9,0,7.1-3.2,7.1-7.1V28.5c0-3.9-3.2-7.1-7.1-7.1c-3.9,0-7.1,3.2-7.1,7.1V57C163.9,60.9,167.1,64.1,171,64.1 L171,64.1z M171,64.1"></path> <path d="M313.5,163.9H285c-3.9,0-7.1,3.2-7.1,7.1c0,3.9,3.2,7.1,7.1,7.1h28.5c3.9,0,7.1-3.2,7.1-7.1 C320.6,167.1,317.4,163.9,313.5,163.9L313.5,163.9z M313.5,163.9"></path> <path d="M57,163.9H28.5c-3.9,0-7.1,3.2-7.1,7.1c0,3.9,3.2,7.1,7.1,7.1H57c3.9,0,7.1-3.2,7.1-7.1C64.1,167.1,60.9,163.9,57,163.9 L57,163.9z M57,163.9"></path> <path d="M119.5,67.6l-12.1-21c-2-3.4-6.4-4.5-9.8-2.5c-3.4,2-4.5,6.3-2.6,9.7l12.1,21c1.9,3.4,6.3,4.6,9.7,2.7 C120.3,75.4,121.5,71.1,119.5,67.6C119.5,67.6,119.5,67.6,119.5,67.6L119.5,67.6z M119.5,67.6"></path> <path d="M298.1,97.7c-1.9-3.4-6.3-4.6-9.7-2.7c0,0-0.1,0-0.1,0l-21,12.1c-3.4,2-4.6,6.3-2.6,9.7c1.3,2.2,3.6,3.6,6.2,3.6 c1.2,0,2.5-0.3,3.6-1l21-12.1C298.9,105.4,300.1,101.1,298.1,97.7L298.1,97.7z M298.1,97.7"></path> <path d="M74.8,107.2C74.7,107.2,74.7,107.2,74.8,107.2L53.7,95c-3.4-2-7.8-0.8-9.7,2.5c-2,3.4-0.9,7.8,2.5,9.7c0,0,0.1,0,0.1,0 l21,12.1c3.4,2,7.8,0.9,9.8-2.5C79.3,113.5,78.2,109.2,74.8,107.2L74.8,107.2z M74.8,107.2"></path> <path d="M244.3,44c-3.4-1.9-7.7-0.8-9.7,2.6l-12.1,21c-2,3.4-0.8,7.8,2.6,9.7c3.4,2,7.8,0.8,9.7-2.6l12.1-21 C248.9,50.3,247.7,45.9,244.3,44L244.3,44z M244.3,44"></path> </g> </svg>
